packages/katcn/src/icons/svg/micOff.svg

<svg width="24" height="25" viewBox="0 0 24 25" fill="none" xmlns="http://www.w3.org/2000/svg">
<path fill-rule="evenodd" clip-rule="evenodd" d="M9.23206 4.66271C9.84362 3.74537 10.829 3.20801 12 3.20801C12.9175 3.20801 13.7678 3.59003 14.3929 4.21511C15.018 4.8402 15.4 5.69056 15.4 6.60801V11.008C15.4 11.299 15.3979 11.4933 15.3299 11.7655C15.1959 12.3013 15.5217 12.8442 16.0575 12.9782C16.5933 13.1121 17.1362 12.7863 17.2702 12.2505C17.4001 11.7308 17.4 11.3294 17.4 11.0223V6.60801C17.4 5.12545 16.782 3.77581 15.8071 2.8009C14.8322 1.82599 13.4826 1.20801 12 1.20801C10.1711 1.20801 8.5564 2.07064 7.56796 3.55331C7.26161 4.01284 7.38578 4.63371 7.84531 4.94006C8.30484 5.24641 8.92571 5.12224 9.23206 4.66271ZM8.60001 10.2222V11.008C8.60001 12.8557 10.1523 14.408 12 14.408C12.2402 14.408 12.4748 14.3795 12.7048 14.3271L8.60001 10.2222ZM14.273 15.8952C13.6098 16.1944 12.8492 16.408 12 16.408C9.04772 16.408 6.60001 13.9603 6.60001 11.008V8.22223L1.29289 2.91511C0.902369 2.52459 0.902369 1.89143 1.29289 1.5009C1.68342 1.11038 2.31658 1.11038 2.70711 1.5009L17.5993 16.3931C17.604 16.3977 17.6087 16.4024 17.6134 16.4072L22.6071 21.4009C22.9976 21.7914 22.9976 22.4246 22.6071 22.8151C22.2166 23.2056 21.5834 23.2056 21.1929 22.8151L16.8046 18.4268C15.6935 19.161 14.3979 19.6119 13 19.7569V22.108C13 22.6603 12.5523 23.108 12 23.108C11.4477 23.108 11 22.6603 11 22.108V19.7525C8.92378 19.5211 7.05844 18.5807 5.6929 17.2151C5.68477 17.207 5.67679 17.1987 5.66895 17.1903C4.12428 15.5353 3.10001 13.3998 3.10001 10.908C3.10001 10.3557 3.54772 9.90802 4.10001 9.90802C4.65229 9.90802 5.10001 10.3557 5.10001 10.908C5.10001 12.8103 5.87085 14.4702 7.11921 15.813C8.33712 17.0246 10.0799 17.808 12 17.808H12.0037C13.2624 17.8074 14.3976 17.5114 15.3507 16.9729L14.273 15.8952ZM20.8 10.908C20.8 10.3557 20.3523 9.90802 19.8 9.90802C19.2477 9.90802 18.8 10.3557 18.8 10.908C18.8 12.0607 18.5329 13.1926 18.0221 14.1292C17.7576 14.614 17.9363 15.2215 18.4211 15.4859C18.906 15.7504 19.5134 15.5717 19.7779 15.0869C20.4671 13.8234 20.8 12.3554 20.8 10.908Z" fill="black"/>
</svg>

<svg xmlns="http://www.w3.org/2000/svg" fill="none" viewBox="0 0 24 25"><path fill="#000" fill-rule="evenodd" d="M9.232 4.663C9.844 3.745 10.83 3.208 12 3.208c.918 0 1.768.382 2.393 1.007A3.4 3.4 0 0 1 15.4 6.608v4.4c0 .291-.002.485-.07.758a1 1 0 1 0 1.94.485c.13-.52.13-.922.13-1.229V6.608a5.4 5.4 0 0 0-1.593-3.807A5.4 5.4 0 0 0 12 1.208c-1.829 0-3.444.863-4.432 2.345a1 1 0 0 0 1.664 1.11m-.632 5.56v.785c0 1.848 1.552 3.4 3.4 3.4q.36-.001.705-.08zm5.673 5.672a5.5 5.5 0 0 1-2.273.513c-2.952 0-5.4-2.448-5.4-5.4V8.222L1.293 2.915a1 1 0 0 1 1.414-1.414L17.6 16.393l.014.014 4.994 4.994a1 1 0 0 1-1.414 1.414l-4.388-4.388c-1.111.734-2.407 1.185-3.805 1.33v2.351a1 1 0 1 1-2 0v-2.355A8.92 8.92 0 0 1 5.67 17.19C4.124 15.535 3.1 13.4 3.1 10.908a1 1 0 1 1 2 0c0 1.902.77 3.562 2.02 4.905A6.94 6.94 0 0 0 12 17.808h.004c1.258 0 2.394-.297 3.347-.835zm6.527-4.987a1 1 0 1 0-2 0c0 1.153-.267 2.285-.778 3.221a1 1 0 1 0 1.756.958c.69-1.264 1.022-2.732 1.022-4.179" clip-rule="evenodd"/></svg>
